src/img/exclamation-triangle.svg

<svg fill="none" height="16" viewBox="0 0 16 16" width="16" xmlns="http://www.w3.org/2000/svg"><path clip-rule="evenodd" d="m14.5173 12.2596c.4272.7406-.1091 1.6663-.9625 1.6663h-11.10845c-.85502 0-1.38886-.9272-.96243-1.6663l5.55431-9.63032c.42747-.74095 1.49815-.7396 1.92486 0zm-6.51664-1.9911c-.58808 0-1.06481.4768-1.06481 1.0648 0 .5881.47673 1.0648 1.06481 1.0648s1.06482-.4767 1.06482-1.0648c0-.588-.47674-1.0648-1.06482-1.0648zm-.83923-.67929-.17172-3.14815c-.00868-.15912.11799-.29291.27734-.29291h1.4672c.15935 0 .28604.13379.27736.29291l-.17171 3.14815c-.00803.14732-.12984.26264-.27736.26264h-1.12375c-.14753 0-.26933-.11532-.27736-.26264z" fill="#ff991f" fill-rule="evenodd"/></svg>

<svg width="16" height="16" viewBox="0 0 16 16" fill="none" xmlns="http://www.w3.org/2000/svg">
<path fill-rule="evenodd" clip-rule="evenodd" d="M14.5173 12.2596C14.9445 13.0002 14.4082 13.9259 13.5548 13.9259H2.44635C1.59133 13.9259 1.05749 12.9987 1.48392 12.2596L7.03823 2.62928C7.4657 1.88833 8.53638 1.88968 8.96309 2.62928L14.5173 12.2596ZM8.00066 10.2685C7.41258 10.2685 6.93585 10.7453 6.93585 11.3333C6.93585 11.9214 7.41258 12.3981 8.00066 12.3981C8.58874 12.3981 9.06548 11.9214 9.06548 11.3333C9.06548 10.7453 8.58874 10.2685 8.00066 10.2685ZM7.16143 9.58921L6.98971 6.44106C6.98103 6.28194 7.1077 6.14815 7.26705 6.14815H8.73425C8.8936 6.14815 9.02029 6.28194 9.01161 6.44106L8.8399 9.58921C8.83187 9.73653 8.71006 9.85185 8.56254 9.85185H7.43879C7.29126 9.85185 7.16946 9.73653 7.16143 9.58921Z" fill="#FF991F"/>
</svg>
